X:7
T:Gallopp fraa Lom (Busserul)
R:polkett
Z:2000 Brian Wilson <baab@mediaone.net>
Z:(from JC manuscript?, and Pa Tre Man Hand)
M:2/4
L:1/8
K:D
FG
|: "D"A2 "G"g2 | "D"f>d "A"e/d/c | "D"d>A FG
|  "D"A3 d | "A"c>A EF | "G"G2 B2 | "D"A>F DE | FE FG
| "D"A2 "G"g2 | "D"f>d "A"e/d/c | "D"d>A FG
|  "D"A3 d | "A"c>A EF |[1 "A"GE CE | "D"DD/D/ DD | D>E FG :|
[2 "A"GA Bc | "D"dd/d/ dd | d>d cB ||
P:B
|: "D"Ad f>e | dA fd | "A"f/e/c ec | "D"df a2
|  "D"Ad f>e | dA fd | "A"f/e/c ec | "D"df d2 :||
